app/assets/images/logos/logo.svg

<svg xmlns="http://www.w3.org/2000/svg" width="6025.334" height="2474.669" viewBox="0 0 4519 1856"><path fill="#ffb03c" d="M251.03 891.5c-36.22-316.87 112.92-566.23 425.41-625.37 312.48-43.27 530.12 146.65 586.94 341.37 0 0-.39.27-58.5 20.44C1142.2 383.81 901 257 660 302.67c-222.86 58-374.47 233.67-326.5 565.99-38.03 10.31-2.31.47-82.47 22.84Z"/><path fill="#f4923c" d="M333.39 867.9C365.12 1055.75 583 1283 932 1177c369.3-141.35 270.92-550.3 272.87-550.3 1.82-.57 58.16-20.17 58.16-20.17S1405.5 1083 990.17 1284.81c-474.59 172.55-710.18-200.78-739.18-394.11 79.51-22.7 78.35-21.89 82.4-22.8Z"/><path fill="#5687b7" d="M891.86 1653.7c-453.1 60.82-885.37-306.75-841.1-774.8 67.7-618.78 617.87-689.22 617.87-689.22s.71-.72 2.84 34.62c-159.8 13.34-493.76 199.77-494.74 593.45 31.25 674.31 687.59 592.88 687.59 592.88s0-.38 27.54 243.07ZM777.73 588c-38.66 0-68.65 14.3-89.96 42.91-21.32 28.59-31.97 68.85-31.97 120.76 0 51.69 10.65 91.84 31.97 120.44 21.31 28.59 51.3 42.89 89.96 42.89 38.9 0 69-14.3 90.32-42.89 21.31-28.6 31.97-68.75 31.95-120.44.02-51.91-10.64-92.17-31.95-120.76C846.73 602.3 816.63 588 777.73 588Zm.02-92c79.1 0 141.07 22.66 185.89 67.97 44.82 45.3 67.24 107.87 67.24 187.7 0 79.61-22.42 142.06-67.24 187.38-44.82 45.3-106.79 67.95-185.89 67.95-78.89 0-140.8-22.65-185.73-67.95-44.93-45.32-67.4-107.77-67.4-187.38 0-79.83 22.47-142.4 67.38-187.7C636.95 518.66 698.86 496 777.75 496Zm740.03 188c-20.74 0-36.83 7.7-48.26 23.09s-17.14 37.06-17.14 65c0 27.83 5.71 49.44 17.14 64.83s27.52 23.08 48.26 23.08c20.85 0 36.99-7.69 48.42-23.08 11.44-15.39 17.16-37 17.16-64.83 0-27.94-5.72-49.61-17.16-65-11.43-15.39-27.57-23.09-48.42-23.09Zm0-49c42.43 0 75.66 12.15 99.69 36.44 24.04 24.29 36.06 57.84 36.06 100.65 0 42.69-12.02 76.18-36.06 100.47-24.03 24.3-57.26 36.44-99.69 36.44-42.3 0-75.51-12.14-99.61-36.44-24.09-24.29-36.14-57.78-36.14-100.47 0-42.81 12.05-76.36 36.14-100.65 24.1-24.29 57.31-36.44 99.61-36.44Zm183.63-6h63.28v275h-63.28V629Zm257.68 241c-8.71 11.69-18.32 20.28-28.81 25.77-10.49 5.49-22.62 8.23-36.4 8.23-24.16 0-44.14-9.49-59.93-28.48-15.79-19-23.68-43.21-23.68-72.61 0-29.52 7.89-53.72 23.68-72.6 15.79-18.87 35.77-28.31 59.93-28.31 13.78 0 25.91 2.73 36.4 8.19 10.49 5.46 20.1 14.06 28.81 25.81v-30h63.63v177.78c0 31.85-10.05 56.19-30.14 73-20.09 16.81-49.22 25.22-87.39 25.22-12.38 0-24.34-.98-35.89-2.95-11.55-1.97-23.15-4.99-34.82-9.05v-49c11.07 6.39 21.91 11.16 32.52 14.3 10.61 3.13 21.28 4.7 32 4.7 20.74 0 35.94-4.54 45.59-13.61 9.67-9.07 14.5-23.27 14.5-42.61V870Zm-41.71-122c-13.08 0-23.27 4.8-30.58 14.39-7.31 9.59-10.96 23.15-10.96 40.7 0 18.02 3.54 31.67 10.6 40.97 7.07 9.3 17.38 13.94 30.94 13.94 13.19 0 23.44-4.79 30.74-14.38 7.32-9.59 10.97-23.1 10.97-40.53 0-17.55-3.65-31.11-10.97-40.7-7.3-9.59-17.55-14.39-30.74-14.39Zm162.9 78.75V706h63.64v19.77c0 10.71-.06 24.15-.19 40.34-.11 16.18-.17 26.98-.17 32.39 0 15.9.41 27.34 1.24 34.34.82 7 2.24 12.09 4.25 15.27 2.59 4.12 5.97 7.31 10.15 9.55 4.19 2.23 8.99 3.34 14.41 3.34 13.19 0 23.57-5.05 31.11-15.17 7.54-10.13 11.31-24.19 11.31-42.21V706h63.28v198h-63.28v-29c-9.54 11.62-19.65 20.2-30.31 25.72-10.67 5.52-22.42 8.28-35.27 8.28-22.86 0-40.27-7.02-52.23-21.05-11.96-14.03-17.94-34.43-17.94-61.2ZM2339.41 706h63.28v198h-63.28V706Zm0-77h63.28v52h-63.28v-52Zm192.11 21v56h65.21v45h-65.21v84.38c0 9.24 1.82 15.49 5.46 18.74 3.66 3.26 10.91 4.88 21.75 4.88h32.54v45H2537c-24.98 0-42.69-5.2-53.12-15.61s-15.65-28.08-15.65-53.01V751h-31.46v-45h31.46v-56h63.29Zm300.5 154v18h-147.94c1.53 15 6.89 26.25 16.08 33.75 9.19 7.5 22.04 11.25 38.54 11.25 13.32 0 26.95-1.98 40.91-5.95 13.97-3.97 28.32-9.99 43.05-18.05v49c-14.97 5.61-29.94 9.84-44.91 12.7-14.96 2.87-29.92 4.3-44.89 4.3-35.82 0-63.66-9.11-83.52-27.33-19.85-18.22-29.78-43.77-29.78-76.67 0-32.31 9.75-57.72 29.25-76.23 19.5-18.51 46.34-27.77 80.52-27.77 31.1 0 55.99 9.35 74.67 28.05 18.68 18.68 28.02 43.67 28.02 74.95Zm-65.05-21c0-11.98-3.51-21.64-10.52-28.98-7.01-7.35-16.17-11.02-27.48-11.02-12.25 0-22.21 3.44-29.88 10.31-7.65 6.87-12.43 16.76-14.31 29.69h82.19Zm272.41-72v52c-8.61-5.78-17.25-10.05-25.91-12.83-8.66-2.78-17.64-4.17-26.95-4.17-17.68 0-31.44 5.18-41.29 15.55-9.83 10.36-14.75 24.85-14.75 43.45 0 18.61 4.92 33.09 14.75 43.45 9.85 10.37 23.61 15.55 41.29 15.55 9.9 0 19.3-1.52 28.2-4.55 8.89-3.03 17.11-7.51 24.66-13.45v52c-9.9 3.67-19.95 6.41-30.15 8.25-10.18 1.83-20.4 2.75-30.65 2.75-35.71 0-63.64-9.16-83.8-27.5-20.15-18.33-30.22-43.83-30.22-76.5 0-32.66 10.07-58.16 30.22-76.5 20.16-18.33 48.09-27.5 83.8-27.5 10.36 0 20.58.84 30.65 2.5 10.07 1.67 20.12 4.17 30.15 7.5Zm253.06 72.47V904h-63.64v-91.91c0-17.32-.39-29.22-1.16-35.7-.76-6.48-2.09-11.25-3.97-14.31-2.48-4.13-5.84-7.33-10.08-9.63-4.24-2.3-9.07-3.45-14.48-3.45-13.2 0-23.57 5.1-31.11 15.3-7.54 10.18-11.31 24.29-11.31 42.31V904h-63.28V629h63.28v106c9.54-11.62 19.67-20.2 30.39-25.72 10.72-5.52 22.58-8.28 35.54-8.28 22.86 0 40.21 7.04 52.05 21.11 11.85 14.06 17.77 34.51 17.77 61.36ZM3630.06 712v48c-13.55-5.66-26.63-9.91-39.25-12.75-12.6-2.83-24.5-4.25-35.69-4.25-12.02 0-20.94 1.51-26.78 4.53-5.83 3.01-8.75 7.66-8.75 13.94 0 5.08 2.21 8.99 6.63 11.72 4.42 2.72 12.35 4.73 23.78 6.03l11.12 1.61c32.41 4.12 54.21 10.9 65.41 20.33 11.2 9.43 16.8 24.22 16.8 44.37 0 21.09-7.78 36.95-23.35 47.56-15.55 10.61-38.76 15.91-69.64 15.91-13.08 0-26.61-1-40.57-3-13.97-2-28.31-5-43.04-9v-48c12.61 6 25.54 10.5 38.8 13.5 13.26 3 26.72 4.5 40.39 4.5 12.38 0 21.68-1.7 27.92-5.09 6.25-3.4 9.38-8.43 9.38-15.11 0-5.63-2.15-9.82-6.45-12.57-4.3-2.75-12.86-4.89-25.71-6.42l-11.14-1.42c-28.17-3.55-47.9-10.11-59.22-19.69-11.31-9.57-16.97-24.11-16.97-43.62 0-21.05 7.19-36.66 21.57-46.83 14.37-10.16 36.41-15.25 66.11-15.25 11.66 0 23.92.89 36.76 2.67 12.85 1.78 26.81 4.55 41.89 8.33Zm65.88 124h63.64v68h-63.64v-68Zm219.2-21c-13.2 0-23.13 2.23-29.8 6.7-6.65 4.46-9.98 11.04-9.98 19.74 0 7.99 2.68 14.25 8.05 18.78 5.36 4.52 12.81 6.78 22.36 6.78 11.9 0 21.92-4.26 30.04-12.78 8.14-8.52 12.21-19.18 12.21-31.99V815h-32.88Zm96.69-24.08V904h-63.81v-29c-8.48 11.86-18.03 20.48-28.64 25.89s-23.51 8.11-38.71 8.11c-20.5 0-37.15-5.98-49.94-17.95-12.78-11.98-19.17-27.52-19.17-46.63 0-23.24 7.99-40.28 23.96-51.14 15.96-10.85 41.03-16.28 75.2-16.28h37.3v-5.05c0-10-3.95-17.32-11.85-21.97-7.9-4.65-20.21-6.98-36.94-6.98-13.55 0-26.16 1.34-37.82 4-11.67 2.67-22.52 6.67-32.53 12v-48c13.55-3.27 27.16-5.75 40.82-7.45 13.68-1.7 27.35-2.55 41.02-2.55 35.71 0 61.48 7.05 77.33 21.16 15.85 14.1 23.78 37.02 23.78 68.76Zm64.11 45.08h63.64v68h-63.64v-68Zm285.12-124v48c-13.55-5.66-26.63-9.91-39.25-12.75-12.6-2.83-24.5-4.25-35.69-4.25-12.02 0-20.94 1.51-26.78 4.53-5.83 3.01-8.75 7.66-8.75 13.94 0 5.08 2.21 8.99 6.63 11.72 4.42 2.72 12.35 4.73 23.78 6.03l11.12 1.61c32.41 4.12 54.21 10.9 65.41 20.33 11.2 9.43 16.8 24.22 16.8 44.37 0 21.09-7.78 36.95-23.35 47.56-15.55 10.61-38.76 15.91-69.64 15.91-13.08 0-26.61-1-40.57-3-13.97-2-28.31-5-43.04-9v-48c12.61 6 25.54 10.5 38.8 13.5 13.26 3 26.72 4.5 40.39 4.5 12.38 0 21.68-1.7 27.92-5.09 6.25-3.4 9.38-8.43 9.38-15.11 0-5.63-2.15-9.82-6.45-12.57-4.3-2.75-12.86-4.89-25.71-6.42l-11.14-1.42c-28.17-3.55-47.9-10.11-59.22-19.69-11.31-9.57-16.97-24.11-16.97-43.62 0-21.05 7.19-36.66 21.57-46.83 14.37-10.16 36.41-15.25 66.11-15.25 11.66 0 23.92.89 36.76 2.67 12.85 1.78 26.81 4.55 41.89 8.33Zm65.88 124h63.64v68h-63.64v-68Z"/></svg>

<?xml version="1.0" encoding="UTF-8" standalone="no"?>
<!DOCTYPE svg PUBLIC "-//W3C//DTD SVG 20010904//EN" "http://www.w3.org/TR/2001/REC-SVG-20010904/DTD/svg10.dtd">
<svg xmlns="http://www.w3.org/2000/svg" width="62.7639in" height="25.7778in" viewBox="0 0 4519 1856"> 
	<path id="Center Top" fill="#ffb03c" stroke="black" stroke-width="0" d="M 251.03,891.5 C 214.81,574.63 363.95,325.27 676.44,266.13 988.92,222.86 1206.56,412.78 1263.38,607.50 1263.38,607.5 1262.99,607.77 1204.88,627.94 1142.20,383.81 901,257 660,302.67 437.14,360.67 285.53,536.34 333.5,868.66 295.47,878.97 331.19,869.13 251.03,891.50 Z" /> 
	<path id="Center Bottom" fill="#f4923c" stroke="black" stroke-width="0" d="M 333.39,867.90 C 365.12,1055.75 583,1283 932,1177 1301.30,1035.65 1202.92,626.70 1204.87,626.7 1206.69,626.13 1263.03,606.53 1263.03,606.53 1263.03,606.53 1405.50,1083.00 990.17,1284.81 515.58,1457.36 279.99,1084.03 250.99,890.7 330.5,868 329.34,868.81 333.39,867.9 Z" /> 
	<path id="Left side" fill="#5E78B7" stroke="black" stroke-width="0" d="M 891.86,1653.70 C 438.76,1714.52 6.49,1346.95 50.76,878.9 118.46,260.12 668.63,189.68 668.63,189.68 668.63,189.68 669.34,188.96 671.47,224.3 511.67,237.64 177.71,424.07 176.73,817.75 207.98,1492.06 864.32,1410.63 864.32,1410.63 864.32,1410.63 864.32,1410.25 891.86,1653.70 Z M 777.73,588 C 739.07,588 709.08,602.3 687.77,630.91 666.45,659.50 655.8,699.76 655.8,751.67 655.8,803.36 666.45,843.51 687.77,872.11 709.08,900.7 739.07,915 777.73,915 816.63,915.00 846.73,900.7 868.05,872.11 889.36,843.51 900.02,803.36 900,751.67 900.02,699.76 889.36,659.50 868.05,630.91 846.73,602.30 816.63,588.00 777.73,588.00 Z M 777.75,496.00 C 856.85,496 918.82,518.66 963.64,563.97 1008.46,609.27 1030.88,671.84 1030.88,751.67 1030.88,831.28 1008.46,893.73 963.64,939.05 918.82,984.35 856.85,1007 777.75,1007.00 698.86,1007.00 636.95,984.35 592.02,939.05 547.09,893.73 524.62,831.28 524.62,751.67 524.62,671.84 547.09,609.27 592,563.97 636.95,518.66 698.86,496.00 777.75,496.00 Z M 1517.78,684 C 1497.04,684 1480.95,691.70 1469.52,707.09 1458.09,722.48 1452.38,744.15 1452.38,772.09 1452.38,799.92 1458.09,821.53 1469.52,836.92 1480.95,852.31 1497.04,860 1517.78,860 1538.63,860 1554.77,852.31 1566.20,836.92 1577.64,821.53 1583.36,799.92 1583.36,772.09 1583.36,744.15 1577.64,722.48 1566.20,707.09 1554.77,691.7 1538.63,684 1517.78,684 Z M 1517.78,635 C 1560.21,635.00 1593.44,647.15 1617.47,671.44 1641.51,695.73 1653.53,729.28 1653.53,772.09 1653.53,814.78 1641.51,848.27 1617.47,872.56 1593.44,896.86 1560.21,909 1517.78,909 1475.48,909 1442.27,896.86 1418.17,872.56 1394.08,848.27 1382.03,814.78 1382.03,772.09 1382.03,729.28 1394.08,695.73 1418.17,671.44 1442.27,647.15 1475.48,635.00 1517.78,635 Z M 1701.41,629 C 1701.41,629 1764.69,629 1764.69,629 1764.69,629 1764.69,904 1764.69,904 1764.69,904.00 1701.41,904 1701.41,904 1701.41,904.00 1701.41,629.00 1701.41,629.00 Z M 1959.09,870 C 1950.38,881.69 1940.77,890.28 1930.28,895.77 1919.79,901.26 1907.66,904.00 1893.88,904.00 1869.72,904.00 1849.74,894.51 1833.95,875.52 1818.16,856.52 1810.27,832.31 1810.27,802.91 1810.27,773.39 1818.16,749.19 1833.95,730.31 1849.74,711.44 1869.72,702.00 1893.88,702.00 1907.66,702.00 1919.79,704.73 1930.28,710.19 1940.77,715.65 1950.38,724.25 1959.09,736.00 1959.09,736.00 1959.09,706.00 1959.09,706.00 1959.09,706.00 2022.72,706.00 2022.72,706.00 2022.72,706.00 2022.72,883.78 2022.72,883.78 2022.72,915.63 2012.67,939.97 1992.58,956.78 1972.49,973.59 1943.36,982.00 1905.19,982.00 1892.81,982.00 1880.85,981.02 1869.30,979.05 1857.75,977.08 1846.15,974.06 1834.48,970.00 1834.48,970.00 1834.48,921.00 1834.48,921.00 1845.55,927.39 1856.39,932.16 1867.00,935.30 1877.61,938.43 1888.28,940.00 1899.00,940.00 1919.74,940.00 1934.94,935.46 1944.59,926.39 1954.26,917.32 1959.09,903.12 1959.09,883.78 1959.09,883.78 1959.09,870.00 1959.09,870.00 Z M 1917.38,748.00 C 1904.30,748.00 1894.11,752.80 1886.80,762.39 1879.49,771.98 1875.84,785.54 1875.84,803.09 1875.84,821.11 1879.38,834.76 1886.44,844.06 1893.51,853.36 1903.82,858.00 1917.38,858.00 1930.57,858.00 1940.82,853.21 1948.12,843.62 1955.44,834.03 1959.09,820.52 1959.09,803.09 1959.09,785.54 1955.44,771.98 1948.12,762.39 1940.82,752.80 1930.57,748.00 1917.38,748.00 Z M 2080.28,826.75 C 2080.28,826.75 2080.28,706.00 2080.28,706.00 2080.28,706.00 2143.92,706.00 2143.92,706.00 2143.92,706.00 2143.92,725.77 2143.92,725.77 2143.92,736.48 2143.86,749.92 2143.73,766.11 2143.62,782.29 2143.56,793.09 2143.56,798.50 2143.56,814.40 2143.97,825.84 2144.80,832.84 2145.62,839.84 2147.04,844.93 2149.05,848.11 2151.64,852.23 2155.02,855.42 2159.20,857.66 2163.39,859.89 2168.19,861.00 2173.61,861.00 2186.80,861.00 2197.18,855.95 2204.72,845.83 2212.26,835.70 2216.03,821.64 2216.03,803.62 2216.03,803.62 2216.03,706.00 2216.03,706.00 2216.03,706.00 2279.31,706.00 2279.31,706.00 2279.31,706.00 2279.31,904.00 2279.31,904.00 2279.31,904.00 2216.03,904.00 2216.03,904.00 2216.03,904.00 2216.03,875.00 2216.03,875.00 2206.49,886.62 2196.38,895.20 2185.72,900.72 2175.05,906.24 2163.30,909.00 2150.45,909.00 2127.59,909.00 2110.18,901.98 2098.22,887.95 2086.26,873.92 2080.28,853.52 2080.28,826.75 Z M 2339.41,706.00 C 2339.41,706.00 2402.69,706.00 2402.69,706.00 2402.69,706.00 2402.69,904.00 2402.69,904.00 2402.69,904.00 2339.41,904.00 2339.41,904.00 2339.41,904.00 2339.41,706.00 2339.41,706.00 Z M 2339.41,629.00 C 2339.41,629.00 2402.69,629.00 2402.69,629.00 2402.69,629.00 2402.69,681.00 2402.69,681.00 2402.69,681.00 2339.41,681.00 2339.41,681.00 2339.41,681.00 2339.41,629.00 2339.41,629.00 Z M 2531.52,650.00 C 2531.52,650.00 2531.52,706.00 2531.52,706.00 2531.52,706.00 2596.73,706.00 2596.73,706.00 2596.73,706.00 2596.73,751.00 2596.73,751.00 2596.73,751.00 2531.52,751.00 2531.52,751.00 2531.52,751.00 2531.52,835.38 2531.52,835.38 2531.52,844.62 2533.34,850.87 2536.98,854.12 2540.64,857.38 2547.89,859.00 2558.73,859.00 2558.73,859.00 2591.27,859.00 2591.27,859.00 2591.27,859.00 2591.27,904.00 2591.27,904.00 2591.27,904.00 2537.00,904.00 2537.00,904.00 2512.02,904.00 2494.31,898.80 2483.88,888.39 2473.45,877.98 2468.23,860.31 2468.23,835.38 2468.23,835.38 2468.23,751.00 2468.23,751.00 2468.23,751.00 2436.77,751.00 2436.77,751.00 2436.77,751.00 2436.77,706.00 2436.77,706.00 2436.77,706.00 2468.23,706.00 2468.23,706.00 2468.23,706.00 2468.23,650.00 2468.23,650.00 2468.23,650.00 2531.52,650.00 2531.52,650.00 Z M 2832.02,804.00 C 2832.02,804.00 2832.02,822.00 2832.02,822.00 2832.02,822.00 2684.08,822.00 2684.08,822.00 2685.61,837.00 2690.97,848.25 2700.16,855.75 2709.35,863.25 2722.20,867.00 2738.70,867.00 2752.02,867.00 2765.65,865.02 2779.61,861.05 2793.58,857.08 2807.93,851.06 2822.66,843.00 2822.66,843.00 2822.66,892.00 2822.66,892.00 2807.69,897.61 2792.72,901.84 2777.75,904.70 2762.79,907.57 2747.83,909.00 2732.86,909.00 2697.04,909.00 2669.20,899.89 2649.34,881.67 2629.49,863.45 2619.56,837.90 2619.56,805.00 2619.56,772.69 2629.31,747.28 2648.81,728.77 2668.31,710.26 2695.15,701.00 2729.33,701.00 2760.43,701.00 2785.32,710.35 2804.00,729.05 2822.68,747.73 2832.02,772.72 2832.02,804.00 Z M 2766.97,783.00 C 2766.97,771.02 2763.46,761.36 2756.45,754.02 2749.44,746.67 2740.28,743.00 2728.97,743.00 2716.72,743.00 2706.76,746.44 2699.09,753.31 2691.44,760.18 2686.66,770.07 2684.78,783.00 2684.78,783.00 2766.97,783.00 2766.97,783.00 Z M 3039.38,711.00 C 3039.38,711.00 3039.38,763.00 3039.38,763.00 3030.77,757.22 3022.13,752.95 3013.47,750.17 3004.81,747.39 2995.83,746.00 2986.52,746.00 2968.84,746.00 2955.08,751.18 2945.23,761.55 2935.40,771.91 2930.48,786.40 2930.48,805.00 2930.48,823.61 2935.40,838.09 2945.23,848.45 2955.08,858.82 2968.84,864.00 2986.52,864.00 2996.42,864.00 3005.82,862.48 3014.72,859.45 3023.61,856.42 3031.83,851.94 3039.38,846.00 3039.38,846.00 3039.38,898.00 3039.38,898.00 3029.48,901.67 3019.43,904.41 3009.23,906.25 2999.05,908.08 2988.83,909.00 2978.58,909.00 2942.87,909.00 2914.94,899.84 2894.78,881.50 2874.63,863.17 2864.56,837.67 2864.56,805.00 2864.56,772.34 2874.63,746.84 2894.78,728.50 2914.94,710.17 2942.87,701.00 2978.58,701.00 2988.94,701.00 2999.16,701.84 3009.23,703.50 3019.30,705.17 3029.35,707.67 3039.38,711.00 Z M 3292.44,783.47 C 3292.44,783.47 3292.44,904.00 3292.44,904.00 3292.44,904.00 3228.80,904.00 3228.80,904.00 3228.80,904.00 3228.80,812.09 3228.80,812.09 3228.80,794.77 3228.41,782.87 3227.64,776.39 3226.88,769.91 3225.55,765.14 3223.67,762.08 3221.19,757.95 3217.83,754.75 3213.59,752.45 3209.35,750.15 3204.52,749.00 3199.11,749.00 3185.91,749.00 3175.54,754.10 3168.00,764.30 3160.46,774.48 3156.69,788.59 3156.69,806.61 3156.69,806.61 3156.69,904.00 3156.69,904.00 3156.69,904.00 3093.41,904.00 3093.41,904 3093.41,904.00 3093.41,629.00 3093.41,629.00 3093.41,629.00 3156.69,629.00 3156.69,629 3156.69,629.00 3156.69,735.00 3156.69,735.00 3166.23,723.38 3176.36,714.80 3187.08,709.28 3197.80,703.76 3209.66,701.00 3222.62,701.00 3245.48,701.00 3262.83,708.04 3274.67,722.11 3286.52,736.17 3292.44,756.62 3292.44,783.47 Z M 3630.06,712.00 C 3630.06,712.00 3630.06,760.00 3630.06,760.00 3616.51,754.34 3603.43,750.09 3590.81,747.25 3578.21,744.42 3566.31,743.00 3555.12,743.00 3543.10,743.00 3534.18,744.51 3528.34,747.53 3522.51,750.54 3519.59,755.19 3519.59,761.47 3519.59,766.55 3521.80,770.46 3526.22,773.19 3530.64,775.91 3538.57,777.92 3550.00,779.22 3550.00,779.22 3561.12,780.83 3561.12,780.83 3593.53,784.95 3615.33,791.73 3626.53,801.16 3637.73,810.59 3643.33,825.38 3643.33,845.53 3643.33,866.62 3635.55,882.48 3619.98,893.09 3604.43,903.70 3581.22,909.00 3550.34,909.00 3537.26,909.00 3523.73,908.00 3509.77,906.00 3495.80,904.00 3481.46,901.00 3466.73,897.00 3466.73,897.00 3466.73,849.00 3466.73,849.00 3479.34,855.00 3492.27,859.50 3505.53,862.50 3518.79,865.50 3532.25,867.00 3545.92,867.00 3558.30,867.00 3567.60,865.30 3573.84,861.91 3580.09,858.51 3583.22,853.48 3583.22,846.80 3583.22,841.17 3581.07,836.98 3576.77,834.23 3572.47,831.48 3563.91,829.34 3551.06,827.81 3551.06,827.81 3539.92,826.39 3539.92,826.39 3511.75,822.84 3492.02,816.28 3480.70,806.70 3469.39,797.13 3463.73,782.59 3463.73,763.08 3463.73,742.03 3470.92,726.42 3485.30,716.25 3499.67,706.09 3521.71,701.00 3551.41,701.00 3563.07,701.00 3575.33,701.89 3588.17,703.67 3601.02,705.45 3614.98,708.22 3630.06,712.00 Z M 3695.94,836.00 C 3695.94,836.00 3759.58,836.00 3759.58,836.00 3759.58,836.00 3759.58,904.00 3759.58,904.00 3759.58,904.00 3695.94,904.00 3695.94,904.00 3695.94,904.00 3695.94,836.00 3695.94,836.00 Z M 3915.14,815.00 C 3901.94,815.00 3892.01,817.23 3885.34,821.70 3878.69,826.16 3875.36,832.74 3875.36,841.44 3875.36,849.43 3878.04,855.69 3883.41,860.22 3888.77,864.74 3896.22,867.00 3905.77,867.00 3917.67,867.00 3927.69,862.74 3935.81,854.22 3943.95,845.70 3948.02,835.04 3948.02,822.23 3948.02,822.23 3948.02,815.00 3948.02,815.00 3948.02,815.00 3915.14,815.00 3915.14,815.00 Z M 4011.83,790.92 C 4011.83,790.92 4011.83,904.00 4011.83,904.00 4011.83,904.00 3948.02,904.00 3948.02,904.00 3948.02,904.00 3948.02,875.00 3948.02,875.00 3939.54,886.86 3929.99,895.48 3919.38,900.89 3908.77,906.30 3895.87,909.00 3880.67,909.00 3860.17,909.00 3843.52,903.02 3830.73,891.05 3817.95,879.07 3811.56,863.53 3811.56,844.42 3811.56,821.18 3819.55,804.14 3835.52,793.28 3851.48,782.43 3876.55,777.00 3910.72,777.00 3910.72,777.00 3948.02,777.00 3948.02,777.00 3948.02,777.00 3948.02,771.95 3948.02,771.95 3948.02,761.95 3944.07,754.63 3936.17,749.98 3928.27,745.33 3915.96,743.00 3899.23,743.00 3885.68,743.00 3873.07,744.34 3861.41,747.00 3849.74,749.67 3838.89,753.67 3828.88,759.00 3828.88,759.00 3828.88,711.00 3828.88,711.00 3842.43,707.73 3856.04,705.25 3869.70,703.55 3883.38,701.85 3897.05,701.00 3910.72,701.00 3946.43,701.00 3972.20,708.05 3988.05,722.16 4003.90,736.26 4011.83,759.18 4011.83,790.92 Z M 4075.94,836.00 C 4075.94,836.00 4139.58,836.00 4139.58,836.00 4139.58,836.00 4139.58,904.00 4139.58,904 4139.58,904.00 4075.94,904.00 4075.94,904.00 4075.94,904.00 4075.94,836.00 4075.94,836.00 Z M 4361.06,712.00 C 4361.06,712.00 4361.06,760.00 4361.06,760.00 4347.51,754.34 4334.43,750.09 4321.81,747.25 4309.21,744.42 4297.31,743.00 4286.12,743.00 4274.10,743.00 4265.18,744.51 4259.34,747.53 4253.51,750.54 4250.59,755.19 4250.59,761.47 4250.59,766.55 4252.80,770.46 4257.22,773.19 4261.64,775.91 4269.57,777.92 4281.00,779.22 4281.00,779.22 4292.12,780.83 4292.12,780.83 4324.53,784.95 4346.33,791.73 4357.53,801.16 4368.73,810.59 4374.33,825.38 4374.33,845.53 4374.33,866.62 4366.55,882.48 4350.98,893.09 4335.43,903.70 4312.22,909.00 4281.34,909.00 4268.26,909.00 4254.73,908.00 4240.77,906.00 4226.80,904.00 4212.46,901.00 4197.73,897.00 4197.73,897.00 4197.73,849.00 4197.73,849.00 4210.34,855.00 4223.27,859.50 4236.53,862.50 4249.79,865.50 4263.25,867.00 4276.92,867.00 4289.30,867.00 4298.60,865.30 4304.84,861.91 4311.09,858.51 4314.22,853.48 4314.22,846.80 4314.22,841.17 4312.07,836.98 4307.77,834.23 4303.47,831.48 4294.91,829.34 4282.06,827.81 4282.06,827.81 4270.92,826.39 4270.92,826.39 4242.75,822.84 4223.02,816.28 4211.70,806.70 4200.39,797.13 4194.73,782.59 4194.73,763.08 4194.73,742.03 4201.92,726.42 4216.30,716.25 4230.67,706.09 4252.71,701.00 4282.41,701.00 4294.07,701.00 4306.33,701.89 4319.17,703.67 4332.02,705.45 4345.98,708.22 4361.06,712.00 Z M 4426.94,836.00 C 4426.94,836.00 4490.58,836.00 4490.58,836.00 4490.58,836.00 4490.58,904.00 4490.58,904.00 4490.58,904.00 4426.94,904.00 4426.94,904.00 4426.94,904.00 4426.94,836.00 4426.94,836.00 Z" /> 
</svg>
